!! 00009] TT[TB
!! schlechte Fremdaufnahme.
!!!OTL: NN           s. Lian Bo Protokoll
!!!ARE: Asia, China,ÿAnhui
!! Ethnic Group: Han
!! MM, s. Lian Bo, S. 12
!!!SCT: C0519
!!!YEM: Copyright 1995, estate of Helmut Schaffrath.
**kern
*ICvox
*Ivox
*M2/4
*k[f#]
*G:
{8dd
16b
16b
16b
16a
8g
=1
8a
16b
16a
8g
8e
=2
8.e
16b
8a
8g
=3
8g
4.e}
=4
{8dd
8b
16b
16a
8g
=5
8.a
16b
16a
16g
8e
=6
2d}
=7
{8.dd
16b
16b
16a
8g
=8
8.a
16b
8a
16g
16e
=9
8d
4.e}
=10
{8g
4g
8b
=11
8a
16b
16a
8e
8d
=12
8.d
16e
4g}
=13
{8.a
16g
16e
16d
8e
=14
2d}
=15
{8.d
16e
4g
=16
8.b
16b
8a
16g
16e
=17
8d
4.e}
=18
{8g
4g
8b
=19
8a
16b
16a
8e
8d
=20
8.d
16e
4g}
=21
{8.a
16g
16e
16d
8e
=22
2d}
==
!!!AGN: Xiaodiao, Huangmeixi xuanduan
!! Kanalausfaelle und uebersteuert.
!!    Hinter Phr.1 und 2 jeweils 1 Takt, hinter Phr.5 2 Takte Pause wegge-
!!    lassen.
!!!ONB: ESAC (Essen Associative Code) Database: CHINA
!!!AMT: simple duple
!!!AIN: vox
!!!EED: Helmut Schaffrath
!!!EEV: 1.0
*-
